X:374
T:French Country Dances, No. 1 or Pantaloon Figure
C:Michael Kelly, c. 1804
L:1/8
M:6/8
R:Jig
S:Colin Hume's website,  colinhume.com  - chords can also be printed below the stave.
Q:3/8=104
K:A
%%center Play ABACC x 2 plus extra A
P:A
"-"efg | [I: MIDI=gchord GHIghi] "A"a2e c2e | "E7"dcd B2e | "A"c2A "E7"B2e | "A"c2A efg |\
"A"a2e c2e | "E7"dcd B2e | "A"A2a "E7"B2e | "A"c2A ||
P:B
"-"EGA | "E7"B2d dcB | "A"A2e a2e | "A"a2e A2c | "E7"B2G EGA |\
"E7"B2d dcB | "A"A2a "D"fdb | "E7"ged cdB | "A"A3 ||
P:A
"-"efg | "A"a2e c2e | "E7"dcd B2e | "A"c2A "E7"B2e | "A"c2A efg |\
"A"a2e c2e | "E7"dcd B2e | "A"A2a "E7"B2e | "A"c2A ||
P:C
|: "-"cfg | "F#m"a2f "C#7"^e2g | "F#m"f2c d2c | "F#m"d2c fga | "C#7"g2^e cfg |\
"F#m"a2f "C#7"^e2g | "F#m"f2c "Bm"d2B | "Bm"d2B "C#7"A2G | "F#m"F3 :|

